X:1
T:New York, LM
T:New York, LM
T:Thomas Tertius Noble, 1917
T:Public Domain Courtesy of the Cyber Hymnal™
C:Thomas Tertius Noble, 1917
Z:Public Domain
Z:Courtesy of the Cyber Hymnal™
%%score ( 1 2 ) ( 3 4 )
L:1/8
Q:1/4=103
M:4/4
K:E
V:1 treble 
V:2 treble 
V:3 bass 
V:4 bass 
V:1
 E2 | [EB]2 B2 [Ac]2 ([GB][FA]) | [EG]2 A2 [EB]2 B2 | [Ge]2 [Gd]2 [Gc]2 (Bc) | %4
 [Fd]2 c2 !fermata![DB]2 [DF]2 | B2 B2 c2 (BA) | [EG]2 A2 [EB]2 (cd) | [Ee]2 [Dc]2 [EB]2 [B,G]2 | %8
 (AG) F2 !fermata!E2 |] %9
V:2
 E2 | x2 FG x4 | x2 (EF) x (DE) x | x6 G2 | x2 (FE) x4 | (ED) (EF) (AG) F2 | x2 (ED) x E2 x | x8 | %8
 E2 (CD) E2 |] %9
V:3
 ([E,G,][F,A,]) | (B,C) [B,D]2 [A,E]2 [B,D]2 | C2 [A,C]2 [G,B,]2 ([F,A,][E,G,]) | %3
 (G,^A,) [D,^B,]2 [E,C]2 (DC) | (^A,B,) (G,A,) !fermata![B,,B,]2 B,2 | %5
 ([G,B,][F,A,]) ([E,G,][D,B,]) [C,E]2 (DC) | [E,B,]2 [F,B,]2 [G,B,]2 A,2 | %7
 [G,B,]2 [F,A,]2 B,2 (ED) | (CB,) [B,,A,]2 !fermata![E,G,]2 |] %9
V:4
 x2 | G,2 x6 | (CB,) x6 | C,2 x3 ^E,2 x | F,2 F,2 x (B,^A,) x | x6 D,2 | x6 A,2 | x4 (G,F,) E,2 | %8
 A,,2 x4 |] %9

